!!!!SEGMENT: pl-sa--481-a-viii-121--023_anonim--barin.krn
!!!cenid: 18xx:394
!!!COM: Anonim
!!!COM-rismid: pe30004985
!!!CDT:
!!!CNT:
!!!OTL: Barin
!!!PDT:
!!!AGN: Secular
!!!SMS-siglum: PL-SA
!!!SMS-shelfmark: 481/A VIII 121
!!!SMS-shelfwork: 023 W
!!!SMS-variant:
!!!SMS-altvar:
!!!NIFC-rismid: 1001070686
!!!URL-scan: http://bc.bdsandomierz.pl/dlibra/publication/1212/edition/1171/content
!!!ONB-nifc: Str. 19, s. 3-4
!!!key:
**kern	**kern
*part1	*part1
*staff2	*staff1
*Ipiano	*Iempty
*I"Pianoforte	*
*I'P-no	*
*clefG2	*clefG2
*k[b-e-]	*k[b-e-]
*B-:	*B-:
*M2/4	*M2/4
*>[A,A,B,B]	*>[A,A,B,B]
=1	=1
*>A	*>A
!LO:TX:a:t=P:problem=bemole dd-(zamiasr ee-) b-	!LO:TX:a:t=P:problem=bemole dd-(zamiasr ee-) b-
8dL 8B-/	8dd\
8f/J	4ff\
*rep	*
8dL 8B-/	.
8f/J	16gg\LL
.	16aa\JJ
*Xrep	*
=2	=2
8e-L 8B-/	8bb-\L
8f/J	8dd\J
*rep	*
8e-L 8B-/	8ee-\L
8g/J	8gg\J
*Xrep	*
=3	=3
8dL 8B-/	16gg\LL
.	16ff\JJ
8f/J	4ff\
*rep	*
8dL 8B-/	.
8f/J	16gg\LL
.	16aa\JJ
*Xrep	*
=4	=4
*rep	*
8dL 8B-/	8bb-\L
8f/J	8dd\J
*Xrep	*
8cL 8A/	8ee-\L
8f/J	8cc\J
=5:|!|:	=5:|!|:
*>B	*>B
8fL 8d 8B-/	4dd 4b-\
8f 8d 8B-/	.
8f 8c 8A/	16cc\LL
.	16a\
8fJ 8c 8A/	16cc\
.	16ee-\JJ
=6	=6
*rep	*
8fL 8d 8B-/	8dd\L
8f 8d 8B-/	16dd\L
.	16ff\JJ
8f 8c 8A/	8cc\L
8fJ 8c 8A/	16cc\L
.	16ee-\JJ
*Xrep	*
!LO:LB:g=original	!LO:LB:g=original
=7	=7
*rep	*
8fL 8d 8B-/	4dd 4b-\
8f 8d 8B-/	.
8f 8c 8A/	16cc\LL
.	16a\
8fJ 8c 8A/	16cc\
.	16ee-\JJ
*Xrep	*
=8	=8
*rep	*
16fLL 16d 16B-/	16dd\LL
16f 16d 16B-/	16b-\
16f 16c 16A/	16dd\
16fJJ 16c 16A/	16ff\JJ
4f 4c 4A/	4cc\
*Xrep	*
=:|!;;	=:|!;;
*-	*-
!!!system-decoration: s1,s2
!!!AIN: 1 piano
!!!ENC: Marta Lawrence
!!!END: 2020-11-21
!!!ENC: Tomasz Grochalski
!!!END: 2020-06-14
